ion/logo-python.svg

<svg viewBox="0 0 512 512" xmlns="http://www.w3.org/2000/svg"><g><path d="M314 36.38c-18.59-3.06-45.8-4.47-64.27-4.38l0 0c-17.32.02-34.6 1.48-51.66 4.38 -45.74 8-54.07 24.7-54.07 55.54V128h112v16H107.62C66.06 144 32.33 193.67 32 255.12c0 .29 0 .58 0 .88v0c-.02 10.74 1.03 21.46 3.13 32 9.29 46.28 38.23 80 72.49 80H128v-54c0-31.3 20.84-59.95 55-66.1l9.87-1.23H314v0c5.08.01 10.15-.66 15.06-2v0c23.06-6.16 39.07-27.12 38.94-50.99V91.92c0-28.92-24.68-50.73-54-55.54ZM194.93 105.5v-.001c-11.25.03-20.41-9.06-20.44-20.3 -.04-11.25 9.05-20.41 20.3-20.44 11.24-.04 20.4 9.05 20.43 20.3 0 .04 0 .09 0 .13v0c0 11.2-9.08 20.29-20.28 20.3 -.01 0-.02 0-.03 0Z"/><path d="M475.28 217c-10.7-42.61-38.41-73-70.9-73h-17.71v47.45c0 39.57-26 68.22-57.74 73.13v0c-3.21.49-6.45.74-9.69.75H198.08v0c-5.14-.01-10.26.65-15.23 1.95 -22.31 5.86-38.85 24.42-38.85 48.49v101.77c0 29 29.14 46 57.73 54.31 34.21 9.95 71.48 11.75 112.42 0 27.19-7.77 53.85-23.48 53.85-54.31V384H256v-16h148.38c29.44 0 54.95-24.93 67.45-61.31v0c5.48-16.34 8.24-33.46 8.17-50.69h0c.02-13.15-1.56-26.25-4.72-39ZM316.51 404v-.001c11.24-.04 20.4 9.05 20.43 20.3 .03 11.24-9.06 20.4-20.3 20.43 -11.25.03-20.41-9.06-20.44-20.3 -.01-.05-.01-.1 0-.14v0c-.01-11.21 9.07-20.3 20.27-20.3 0-.01.01-.01.02 0Z"/></g></svg>

<svg xmlns="http://www.w3.org/2000/svg" width="512" height="512" viewBox="0 0 512 512"><path d="M314,36.38c-18.59-3.06-45.8-4.47-64.27-4.38a311.09,311.09,0,0,0-51.66,4.38c-45.74,8-54.07,24.7-54.07,55.54V128H256v16H107.62C66.06,144,32.33,193.67,32,255.12c0,.29,0,.58,0,.88a162.91,162.91,0,0,0,3.13,32c9.29,46.28,38.23,80,72.49,80H128V314c0-31.3,20.84-59.95,55-66.1l9.87-1.23H314a56.05,56.05,0,0,0,15.06-2A52.48,52.48,0,0,0,368,193.68V91.92C368,63,343.32,41.19,314,36.38ZM194.93,105.5a20.37,20.37,0,1,1,20.3-20.3A20.29,20.29,0,0,1,194.93,105.5Z"/><path d="M475.28,217c-10.7-42.61-38.41-73-70.9-73H386.67v47.45c0,39.57-26,68.22-57.74,73.13a63.54,63.54,0,0,1-9.69.75H198.08a60,60,0,0,0-15.23,1.95C160.54,273.14,144,291.7,144,315.77V417.54c0,29,29.14,46,57.73,54.31,34.21,9.95,71.48,11.75,112.42,0,27.19-7.77,53.85-23.48,53.85-54.31V384H256V368H404.38c29.44,0,54.95-24.93,67.45-61.31A156.83,156.83,0,0,0,480,256,160.64,160.64,0,0,0,475.28,217ZM316.51,404a20.37,20.37,0,1,1-20.3,20.3A20.29,20.29,0,0,1,316.51,404Z"/></svg>
